T: Chanter's Song
M: 2/4
L: 1/8
K: Amix
A2A2 e2dB|A2A2 g2fg|a2e2 e2dB|g2fg e2dB|A2A2 e2dB|A2A2 g2fg|a2e2 e2dB|A4 A4:||edef g2fg|edef g2fg|a2e2 e2dB|g2fg e2dB|A2A2 e2dB|A2A2 g2fg|a2e2 e2dB|A4 A4:||
